!!!!SEGMENT: pl-kk--kk-i-111--006-002_anonim--deo-gratias-paschale-2dum.krn
!!!cenid: 18xx:2568
!!!COM: Anonim
!!!COM-rismid: pe30004985
!!!CDT:
!!!CNT:
!!!GTL: Deo gratias
!!!OTL: Paschale 2dum
!!!OMV: 002
!!!PDT: 1824
!!!AGN: Sacred
!!!SMS-siglum: PL-Kk
!!!SMS-shelfmark: Kk.I.111
!!!SMS-shelfwork: 006-002 G
!!!SMS-variant:
!!!SMS-altvar:
!!!NIFC-rismid: 1001157682
!!!URL-scan: http://repozytorium.nifc.pl/skany/pl-kk-nut--i-111
!!!ONB-nifc: UWAGA: A, T1, T2. Podział na poszególne Deo gratias. A: skan 0003 (m.in)
**kern	**text	**kern	**text	**kern	**text
*part3	*part3	*part2	*part2	*part1	*part1
*staff3	*staff3	*staff2	*staff2	*staff1	*staff1
*Itenor	*	*Itenor	*	*Ialto	*
*I"Tenore Vagante.	*	*I"Tenore Chorale.	*	*I"Alto.	*
*I'T 2	*	*I'T 1	*	*I'A	*
*clefC4	*	*clefC4	*	*clefC3	*
*k[]	*	*k[]	*	*k[]	*
*G:	*	*G:	*	*G:	*
*M2/1	*	*M2/1	*	*M2/1	*
*met(c|)	*	*met(c|)	*	*met(c|)	*
*all\right	*	*all\right	*	*all\right	*
*2\right	*	*2\right	*	*2\right	*
=1-	=1-	=1-	=1-	=1-	=1-
!LO:TX:t=P:problem:kreska pseudotaktowa	!	!LO:TX:a:t=2	!	!LO:TX:a:t=5	!
1c	De-	0r	.	00r	.
!LO:TX:t=P:problem:kreska pseudotaktowa	!	!	!	!	!
1d	.	.	.	.	.
=2	=2-	=2-	=2-	=2-	=2-
!LO:TX:t=P:problem:kreska pseudotaktowa	!	!LO:TX:t=P:problem:kreska pseudotaktowa	!	!	!
1c	-o	1c	De-	.	.
!LO:TX:t=P:problem:kreska pseudotaktowa	!	!LO:TX:t=P:problem:kreska pseudotaktowa	!	!	!
1Bn	.	1d	.	.	.
=3	=3-	=3	=3-	=3-	=3-
!	!	!LO:TX:t=P:problem:kreska pseudotaktowa	!	!LO:TX:t=P:problem:kreska pseudotaktowa	!
4A\	gra-	1c	-o	1r	.
4B\	.	.	.	.	.
4c\	.	.	.	.	.
!LO:TX:t=P:problem:kreska pseudotaktowa	!	!	!	!	!
4A\	.	.	.	.	.
!	!	!LO:TX:t=P:problem:kreska pseudotaktowa	!	!LO:TX:t=P:problem:kreska pseudotaktowa	!
4B\	.	1B	.	1g	De-
4G\	.	.	.	.	.
!LO:TX:t=P:problem:kreska pseudotaktowa	!	!	!	!	!
!LO:TX:t=P:problem:2\right:global	!	!	!	!	!
[2d\	.	.	.	.	.
=4	=4-	=4	=4-	=4	=4-
!	!	!LO:TX:t=P:problem:kreska pseudotaktowa	!	!LO:TX:t=P:problem:kreska pseudotaktowa	!
2d\]	.	1A	.	1a	.
!LO:TX:t=P:problem:kreska pseudotaktowa	!	!	!	!	!
2d\	-ti-	.	.	.	.
!	!	!LO:TX:t=P:problem:kreska pseudotaktowa	!	!LO:TX:t=P:problem:2\right:global	!
2G/	-as	1c	.	2g\	-o
!LO:TX:t=P:problem:kreska pseudotaktowa:między nutą a kropką	!	!	!	!	!
2.c\	De-	.	.	1e\	.
=5	=5-	=5	=5-	=5-	=5-
!	!	!LO:TX:t=P:problem:kreska pseudotaktowa	!	!	!
.	.	1A	.	.	.
4B\	.	.	.	.	.
!LO:TX:t=P:problem:kreska pseudotaktowa	!	!	!	!LO:TX:t=P:problem:kreska pseudotaktowa	!
2A\	-o	.	.	2fn\	.
!	!	!LO:TX:t=P:problem:kreska pseudotaktowa	!	!	!
4G/	gra-	1c	.	4g\	gra-
4A/	.	.	.	4f\	.
!	!	!	!	!LO:TX:t=P:problem:kreska pseudotaktowa	!
4B/	.	.	.	2e\	.
!LO:TX:t=P:problem:kreska pseudotaktowa	!	!	!	!	!
4A/	.	.	.	.	.
=6	=6-	=6	=6-	=6	=6-
!	!	!LO:TX:t=P:problem:kreska pseudotaktowa	!	!	!
2B\	.	1G	.	2d\	.
!LO:TX:t=P:problem:kreska pseudotaktowa	!	!	!	!LO:TX:t=P:problem:kreska pseudotaktowa	!
2c\	.	.	.	2e\	.
!	!	!LO:TX:t=P:problem:kreska pseudotaktowa	!	!	!
2.A\	.	1F	gra-	2.c\	.
!LO:TX:t=P:problem:kreska pseudotaktowa	!	!	!	!LO:TX:t=P:problem:kreska pseudotaktowa	!
4A\	-ti-	.	.	4c\	-ti-
=7	=7-	=7	=7-	=7	=7-
!	!	!LO:TX:t=P:problem:kreska pseudotaktowa	!	!	!
2A\	-as	1A	.	2c\	-as
4d\	De-	.	.	1f	De-
!LO:TX:t=P:problem:kreska pseudotaktowa	!	!	!	!	!
4e\	.	.	.	.	.
!	!	!LO:TX:t=P:problem:kreska pseudotaktowa	!	!	!
2d\	.	1B	.	.	.
1e\	.	.	.	1g\	.
=8-	=8-	=8	=8-	=8-	=8-
!	!	!LO:TX:t=P:problem:kreska pseudotaktowa	!	!	!
.	.	1c	.	.	.
!LO:TX:t=P:problem:kreska pseudotaktowa	!	!	!	!LO:TX:t=P:problem:kreska pseudotaktowa	!
2A/	-o	.	.	2a\	-o
!LO:LB:g=original	!	!LO:TX:t=P:problem:kreska pseudotaktowa	!	!LO:TX:t=P:problem:kreska pseudotaktowa	!
2B\	gra-	1B	.	1g	gra-
!LO:TX:t=P:problem:kreska pseudotaktowa	!	!	!	!	!
2c\	.	.	.	.	.
=9	=9-	=9	=9-	=9	=9-
!	!	!LO:TX:t=P:problem:kreska pseudotaktowa	!	!LO:TX:t=P:problem:kreska pseudotaktowa	!
2A\	.	1A	.	1fn	.
!LO:TX:t=P:problem:kreska pseudotaktowa	!	!	!	!	!
2B\	.	.	.	.	.
!	!	!LO:TX:t=P:problem:kreska pseudotaktowa	!	!	!
2G/	.	1G	.	4e\	.
.	.	.	.	4d\	.
!LO:TX:t=P:problem:kreska pseudotaktowa	!	!	!	!	!
2c\	.	.	.	4e\	.
!	!	!	!	!LO:TX:t=P:problem:kreska pseudotaktowa	!
.	.	.	.	4f\	.
=10	=10-	=10	=10-	=10	=10-
2A\	.	1.A	.	2e\	.
!	!	!	!	!LO:TX:t=P:problem:kreska pseudotaktowa	!
1d	.	.	.	2f#X\	.
.	.	.	.	2g\	.
!LO:TX:t=P:problem:kreska pseudotaktowa	!	!LO:TX:t=P:problem:kreska pseudotaktowa	!	!LO:TX:t=P:problem:kreska pseudotaktowa	!
2d\	-ti-	2A/	.	2f#X\	-ti-
=11	=11-	=11	=11-	=11	=11-
!	!	!LO:TX:t=P:problem:kreska pseudotaktowa	!	!	!
2d\	-as	0G	-ti-	2g\	-as
!LO:TX:t=P:problem:kreska pseudotaktowa	!	!	!	!	!
[2c\	De-	.	.	1e	De-
2c\]	.	.	.	.	.
!LO:TX:t=P:problem:kreska pseudotaktowa	!	!	!	!LO:TX:t=P:problem:kreska pseudotaktowa	!
2G/	-o	.	.	2d\	-o
=12	=12-	=12	=12-	=12	=12-
!	!	!LO:N:vis=0	!	!	!
4c\	gra-	00G;	-as.	4e\	gra-
4d\	.	.	.	4f\	.
4e\	.	.	.	4g\	.
!LO:TX:t=P:problem:kreska pseudotaktowa	!	!	!	!LO:TX:t=P:problem:kreska pseudotaktowa	!
4d\	.	.	.	4f\	.
2.c\	.	.	.	2.e\	.
!LO:TX:t=P:problem:kreska pseudotaktowa	!	!	!	!LO:TX:t=P:problem:kreska pseudotaktowa	!
4c\	-ti-	.	.	4e\	-ti-
=13	=13-	=13-	=13-	=13	=13-
0B;	-as.	.	.	0d;	-as.
==	=-	==	=-	==	=-
*-	*-	*-	*-	*-	*-
!!!system-decoration: [(s1,s2,s3)]
!!!ENC: Kamil Watkowski
!!!END: 2021-08-04
